X: 22
T: The Tenpenny Bit
B: begged borrowed and stolen
M:6/8
L:1/8
R: jig
Q: 3/8=100
K:Adorian
V:1 
|:"Am"eAA eAA|"G"BAB GBd|"Am"eAA eAA|"G"def "Em"gfg|
 "Am"eAA eAA|"G"BAB GBd|"Am"def "C"gdB|"Em"BAG "Am"A3:|
|:"Am" eaa aga|"G"bag ged|"Am"eaa aga|"G"bab "Em"g2d|
 "Am"eaa aga|"G"bag ged|"Am"def "C"ged|"Em"BAG "Am"A3:|
% abcbook-tune_id 62828a3aeb79543ef648aebf


% abcbook-boost 0
% abcbook-tablature 
% abcbook-transpose 
% abcbook-lastupdated 1652725431056
% abcbook-soundfonts 
% abcbook-repeats 3
% abc-sessionorg_id 109
% abc-sessionorg_setting 0
% abc-sessionorg_setting_id 109
% abc-boost 1

